data/status/weather-clear-night-small.svg

<?xml version="1.0" encoding="UTF-8" standalone="no"?>
<svg
   xmlns:dc="http://purl.org/dc/elements/1.1/"
   xmlns:cc="http://creativecommons.org/ns#"
   xmlns:rdf="http://www.w3.org/1999/02/22-rdf-syntax-ns#"
   xmlns:svg="http://www.w3.org/2000/svg"
   xmlns="http://www.w3.org/2000/svg"
   xmlns:xlink="http://www.w3.org/1999/xlink"
   xmlns:sodipodi="http://sodipodi.sourceforge.net/DTD/sodipodi-0.dtd"
   xmlns:inkscape="http://www.inkscape.org/namespaces/inkscape"
   width="64px"
   height="64px"
   viewBox="0 0 64 64"
   version="1.1"
   id="svg99"
   sodipodi:docname="weather-clear-night-small.svg"
   inkscape:version="1.0.1 (3bc2e813f5, 2020-09-07)">
  <metadata
     id="metadata103">
    <rdf:RDF>
      <cc:Work
         rdf:about="">
        <dc:format>image/svg+xml</dc:format>
        <dc:type
           rdf:resource="http://purl.org/dc/dcmitype/StillImage" />
      </cc:Work>
    </rdf:RDF>
  </metadata>
  <sodipodi:namedview
     pagecolor="#ffffff"
     bordercolor="#666666"
     borderopacity="1"
     objecttolerance="10"
     gridtolerance="10"
     guidetolerance="10"
     inkscape:pageopacity="0"
     inkscape:pageshadow="2"
     inkscape:window-width="640"
     inkscape:window-height="480"
     id="namedview101"
     showgrid="false"
     inkscape:current-layer="svg99" />
  <defs
     id="defs70">
    <linearGradient
       id="linear0"
       gradientUnits="userSpaceOnUse"
       x1="160.233994"
       y1="218.688995"
       x2="160.233994"
       y2="257.980988"
       gradientTransform="matrix(0.188398,-0.188398,0.188398,0.188398,-18.505533,-2.457308)">
      <stop
         offset="0"
         style="stop-color:rgb(99.215686%,98.039216%,81.176472%);stop-opacity:1;"
         id="stop2" />
      <stop
         offset="0.4"
         style="stop-color:rgb(97.647059%,94.117647%,41.960785%);stop-opacity:1;"
         id="stop4" />
      <stop
         offset="1"
         style="stop-color:rgb(96.470588%,82.745099%,17.647059%);stop-opacity:1;"
         id="stop6" />
    </linearGradient>
    <radialGradient
       id="radial0"
       gradientUnits="userSpaceOnUse"
       cx="107.504997"
       cy="217.035004"
       fx="107.504997"
       fy="217.035004"
       r="2.357"
       gradientTransform="matrix(2.721645,0.00837,-0.00592,1.9246,-228.23178,-407.19199)">
      <stop
         offset="0"
         style="stop-color:rgb(96.078432%,76.078433%,6.666667%);stop-opacity:1;"
         id="stop9" />
      <stop
         offset="1"
         style="stop-color:rgb(96.078432%,76.078433%,6.666667%);stop-opacity:0;"
         id="stop11" />
    </radialGradient>
    <filter
       id="alpha"
       filterUnits="objectBoundingBox"
       x="0%"
       y="0%"
       width="100%"
       height="100%">
      <feColorMatrix
         type="matrix"
         in="SourceGraphic"
         values="0 0 0 0 1 0 0 0 0 1 0 0 0 0 1 0 0 0 1 0"
         id="feColorMatrix14" />
    </filter>
    <image
       id="image13"
       width="64"
       height="64"
       xlink:href="data:image/png;base64,iVBORw0KGgoAAAANSUhEUgAAAEAAAABACAYAAACqaXHeAAAABmJLR0QA/wD/AP+gvaeTAAAAXUlEQVR4nO3Syw1AQBiF0Uus9Kko9ekBK1GCCfE+Z30z+ZJ/EgD4rerugB3alHUvSaatUXM453pdkrpgNybpt0YlD33aG3/AkLLDzWeHAAAAAAAAAAAAAAAAADzOCpTqBd+8jhwqAAAAAElFTkSuQmCC" />
    <mask
       id="mask0">
      <g
         filter="url(#alpha)"
         id="g20">
        <use
           xlink:href="#image13"
           id="use18" />
      </g>
    </mask>
    <radialGradient
       id="radial1"
       gradientUnits="userSpaceOnUse"
       cx="104.183998"
       cy="209.276993"
       fx="104.183998"
       fy="209.276993"
       r="9.074"
       gradientTransform="matrix(0.79911,0,0,0.83122,-30.8745,-163.838501)">
      <stop
         offset="0"
         style="stop-color:rgb(99.607843%,98.431373%,93.333334%);stop-opacity:1;"
         id="stop23" />
      <stop
         offset="1"
         style="stop-color:rgb(96.470588%,80.784315%,26.274511%);stop-opacity:0.925;"
         id="stop25" />
    </radialGradient>
    <clipPath
       id="clip1">
      <rect
         x="0"
         y="0"
         width="64"
         height="64"
         id="rect28" />
    </clipPath>
    <g
       id="surface12"
       clip-path="url(#clip1)">
      <path
         style=" stroke:none;fill-rule:nonzero;fill:url(#radial1);"
         d="M 54 10.5 L 51.640625 8.140625 L 44.925781 10.5 Z M 54 10.5 "
         id="path31" />
    </g>
    <linearGradient
       id="linear1"
       gradientUnits="userSpaceOnUse"
       x1="160.233994"
       y1="218.688995"
       x2="160.233994"
       y2="257.980988"
       gradientTransform="matrix(0.134951,-0.134951,0.134951,0.134951,-4.936853,17.218383)">
      <stop
         offset="0"
         style="stop-color:rgb(99.215686%,98.039216%,81.176472%);stop-opacity:1;"
         id="stop34" />
      <stop
         offset="0.4"
         style="stop-color:rgb(97.647059%,94.117647%,41.960785%);stop-opacity:1;"
         id="stop36" />
      <stop
         offset="1"
         style="stop-color:rgb(96.470588%,82.745099%,17.647059%);stop-opacity:1;"
         id="stop38" />
    </linearGradient>
    <radialGradient
       id="radial2"
       gradientUnits="userSpaceOnUse"
       cx="107.504997"
       cy="217.035004"
       fx="107.504997"
       fy="217.035004"
       r="2.357"
       gradientTransform="matrix(1.949565,0.005995,-0.00424,1.378625,-155.46324,-270.22169)">
      <stop
         offset="0"
         style="stop-color:rgb(96.078432%,76.078433%,6.666667%);stop-opacity:1;"
         id="stop41" />
      <stop
         offset="1"
         style="stop-color:rgb(96.078432%,76.078433%,6.666667%);stop-opacity:0;"
         id="stop43" />
    </radialGradient>
    <image
       id="image25"
       width="64"
       height="64"
       xlink:href="data:image/png;base64,iVBORw0KGgoAAAANSUhEUgAAAEAAAABACAYAAACqaXHeAAAABmJLR0QA/wD/AP+gvaeTAAAAW0lEQVR4nO3QsQmAQBAEwBXExDJsxv4zMRaMDY3s4A0eXtSZdDl2uQQAAAAAAPiL7ukBN4YkUyE/kmw1BX3NcQNjkrmQL/n4A84kayHfWw0BAAAAAAAAAAB4pQt9+wbYfzRCEwAAAABJRU5ErkJggg==" />
    <mask
       id="mask1">
      <g
         filter="url(#alpha)"
         id="g49">
        <use
           xlink:href="#image25"
           id="use47" />
      </g>
    </mask>
    <radialGradient
       id="radial3"
       gradientUnits="userSpaceOnUse"
       cx="104.183998"
       cy="209.276993"
       fx="104.183998"
       fy="209.276993"
       r="9.074"
       gradientTransform="matrix(0.572415,0,0,0.59542,-13.797,-98.382004)">
      <stop
         offset="0"
         style="stop-color:rgb(99.607843%,98.431373%,93.333334%);stop-opacity:1;"
         id="stop52" />
      <stop
         offset="1"
         style="stop-color:rgb(96.470588%,80.784315%,26.274511%);stop-opacity:0.925;"
         id="stop54" />
    </radialGradient>
    <clipPath
       id="clip2">
      <rect
         x="0"
         y="0"
         width="64"
         height="64"
         id="rect57" />
    </clipPath>
    <g
       id="surface24"
       clip-path="url(#clip2)">
      <path
         style=" stroke:none;fill-rule:nonzero;fill:url(#radial3);"
         d="M 47 26.5 L 45.308594 24.808594 L 40.5 26.5 Z M 47 26.5 "
         id="path60" />
    </g>
    <linearGradient
       id="linear2"
       gradientUnits="userSpaceOnUse"
       x1="4.496"
       y1="65.214996"
       x2="118.792999"
       y2="65.214996"
       gradientTransform="matrix(0.5,0,0,0.5,-2.248,-3.537)">
      <stop
         offset="0"
         style="stop-color:rgb(87.058824%,86.666667%,85.490197%);stop-opacity:1;"
         id="stop63" />
      <stop
         offset="0.506"
         style="stop-color:rgb(94.901961%,94.901961%,94.117647%);stop-opacity:1;"
         id="stop65" />
      <stop
         offset="1"
         style="stop-color:rgb(77.254903%,76.47059%,74.509805%);stop-opacity:1;"
         id="stop67" />
    </linearGradient>
  </defs>
  <path
     style="fill:#f8e45c;fill-rule:nonzero;stroke:none"
     d="M 63.074219,10.5 56.359375,12.859375 54,19.574219 51.640625,12.859375 44.925781,10.5 51.640625,8.140625 54,1.425781 56.359375,8.140625 Z m 0,0"
     id="path72" />
  <path
     style="fill:#f9f06b;fill-rule:nonzero;stroke:none"
     d="M 53.5,26.5 48.691406,28.191406 47,33 45.308594,28.191406 40.5,26.5 45.308594,24.808594 47,20 l 1.691406,4.808594 z m 0,0"
     id="path82" />
  <path
     style="fill:#f8e45c;fill-opacity:1;fill-rule:nonzero;stroke:none"
     d="M 31.925781,2.324219 C 15.535156,2.324219 2.246094,15.609375 2.246094,32 c 0,16.390625 13.289062,29.675781 29.679687,29.675781 12.050781,0 22.910157,-7.289062 27.46875,-18.445312 -1.339843,0.253906 -2.699219,0.378906 -4.066406,0.378906 -12.234375,0 -22.152344,-9.921875 -22.152344,-22.15625 0,-6.828125 3.148438,-13.273437 8.53125,-17.472656 -3.144531,-1.097657 -6.449219,-1.65625 -9.78125,-1.65625 z m 0,0"
     id="path92" />
</svg>

<?xml version="1.0" encoding="UTF-8"?>
<svg xmlns="http://www.w3.org/2000/svg" xmlns:xlink="http://www.w3.org/1999/xlink" width="64px" height="64px" viewBox="0 0 64 64" version="1.1">
<defs>
<linearGradient id="linear0" gradientUnits="userSpaceOnUse" x1="160.233994" y1="218.688995" x2="160.233994" y2="257.980988" gradientTransform="matrix(0.188398,-0.188398,0.188398,0.188398,-18.505533,-2.457308)">
<stop offset="0" style="stop-color:rgb(99.215686%,98.039216%,81.176472%);stop-opacity:1;"/>
<stop offset="0.4" style="stop-color:rgb(97.647059%,94.117647%,41.960785%);stop-opacity:1;"/>
<stop offset="1" style="stop-color:rgb(96.470588%,82.745099%,17.647059%);stop-opacity:1;"/>
</linearGradient>
<radialGradient id="radial0" gradientUnits="userSpaceOnUse" cx="107.504997" cy="217.035004" fx="107.504997" fy="217.035004" r="2.357" gradientTransform="matrix(2.721645,0.00837,-0.00592,1.9246,-237.306,-407.191986)">
<stop offset="0" style="stop-color:rgb(96.078432%,76.078433%,6.666667%);stop-opacity:1;"/>
<stop offset="1" style="stop-color:rgb(96.078432%,76.078433%,6.666667%);stop-opacity:0;"/>
</radialGradient>
<filter id="alpha" filterUnits="objectBoundingBox" x="0%" y="0%" width="100%" height="100%">
  <feColorMatrix type="matrix" in="SourceGraphic" values="0 0 0 0 1 0 0 0 0 1 0 0 0 0 1 0 0 0 1 0"/>
</filter>
<image id="image13" width="64" height="64" xlink:href="data:image/png;base64,iVBORw0KGgoAAAANSUhEUgAAAEAAAABACAYAAACqaXHeAAAABmJLR0QA/wD/AP+gvaeTAAAAXUlEQVR4nO3Syw1AQBiF0Uus9Kko9ekBK1GCCfE+Z30z+ZJ/EgD4rerugB3alHUvSaatUXM453pdkrpgNybpt0YlD33aG3/AkLLDzWeHAAAAAAAAAAAAAAAAADzOCpTqBd+8jhwqAAAAAElFTkSuQmCC"/>
<mask id="mask0">
  <g filter="url(#alpha)">
<use xlink:href="#image13"/>
  </g>
</mask>
<radialGradient id="radial1" gradientUnits="userSpaceOnUse" cx="104.183998" cy="209.276993" fx="104.183998" fy="209.276993" r="9.074" gradientTransform="matrix(0.79911,0,0,0.83122,-30.8745,-163.838501)">
<stop offset="0" style="stop-color:rgb(99.607843%,98.431373%,93.333334%);stop-opacity:1;"/>
<stop offset="1" style="stop-color:rgb(96.470588%,80.784315%,26.274511%);stop-opacity:0.925;"/>
</radialGradient>
<clipPath id="clip1">
  <rect x="0" y="0" width="64" height="64"/>
</clipPath>
<g id="surface12" clip-path="url(#clip1)">
<path style=" stroke:none;fill-rule:nonzero;fill:url(#radial1);" d="M 54 10.5 L 51.640625 8.140625 L 44.925781 10.5 Z M 54 10.5 "/>
</g>
<linearGradient id="linear1" gradientUnits="userSpaceOnUse" x1="160.233994" y1="218.688995" x2="160.233994" y2="257.980988" gradientTransform="matrix(0.134951,-0.134951,0.134951,0.134951,-4.936853,17.218383)">
<stop offset="0" style="stop-color:rgb(99.215686%,98.039216%,81.176472%);stop-opacity:1;"/>
<stop offset="0.4" style="stop-color:rgb(97.647059%,94.117647%,41.960785%);stop-opacity:1;"/>
<stop offset="1" style="stop-color:rgb(96.470588%,82.745099%,17.647059%);stop-opacity:1;"/>
</linearGradient>
<radialGradient id="radial2" gradientUnits="userSpaceOnUse" cx="107.504997" cy="217.035004" fx="107.504997" fy="217.035004" r="2.357" gradientTransform="matrix(1.949565,0.005995,-0.00424,1.378625,-161.667999,-272.700012)">
<stop offset="0" style="stop-color:rgb(96.078432%,76.078433%,6.666667%);stop-opacity:1;"/>
<stop offset="1" style="stop-color:rgb(96.078432%,76.078433%,6.666667%);stop-opacity:0;"/>
</radialGradient>
<image id="image25" width="64" height="64" xlink:href="data:image/png;base64,iVBORw0KGgoAAAANSUhEUgAAAEAAAABACAYAAACqaXHeAAAABmJLR0QA/wD/AP+gvaeTAAAAW0lEQVR4nO3QsQmAQBAEwBXExDJsxv4zMRaMDY3s4A0eXtSZdDl2uQQAAAAAAPiL7ukBN4YkUyE/kmw1BX3NcQNjkrmQL/n4A84kayHfWw0BAAAAAAAAAAB4pQt9+wbYfzRCEwAAAABJRU5ErkJggg=="/>
<mask id="mask1">
  <g filter="url(#alpha)">
<use xlink:href="#image25"/>
  </g>
</mask>
<radialGradient id="radial3" gradientUnits="userSpaceOnUse" cx="104.183998" cy="209.276993" fx="104.183998" fy="209.276993" r="9.074" gradientTransform="matrix(0.572415,0,0,0.59542,-13.797,-98.382004)">
<stop offset="0" style="stop-color:rgb(99.607843%,98.431373%,93.333334%);stop-opacity:1;"/>
<stop offset="1" style="stop-color:rgb(96.470588%,80.784315%,26.274511%);stop-opacity:0.925;"/>
</radialGradient>
<clipPath id="clip2">
  <rect x="0" y="0" width="64" height="64"/>
</clipPath>
<g id="surface24" clip-path="url(#clip2)">
<path style=" stroke:none;fill-rule:nonzero;fill:url(#radial3);" d="M 47 26.5 L 45.308594 24.808594 L 40.5 26.5 Z M 47 26.5 "/>
</g>
<linearGradient id="linear2" gradientUnits="userSpaceOnUse" x1="4.496" y1="65.214996" x2="118.792999" y2="65.214996" gradientTransform="matrix(0.5,0,0,0.5,-2.248,-3.537)">
<stop offset="0" style="stop-color:rgb(87.058824%,86.666667%,85.490197%);stop-opacity:1;"/>
<stop offset="0.506" style="stop-color:rgb(94.901961%,94.901961%,94.117647%);stop-opacity:1;"/>
<stop offset="1" style="stop-color:rgb(77.254903%,76.47059%,74.509805%);stop-opacity:1;"/>
</linearGradient>
</defs>
<g id="surface1">
<path style=" stroke:none;fill-rule:nonzero;fill:url(#linear0);" d="M 63.074219 10.5 L 56.359375 12.859375 L 54 19.574219 L 51.640625 12.859375 L 44.925781 10.5 L 51.640625 8.140625 L 54 1.425781 L 56.359375 8.140625 Z M 63.074219 10.5 "/>
<path style=" stroke:none;fill-rule:nonzero;fill:rgb(96.078432%,76.078433%,6.666667%);fill-opacity:1;" d="M 54 10.5 L 56.359375 12.859375 L 63.074219 10.5 Z M 54 10.5 L 51.640625 12.859375 L 44.925781 10.5 Z M 54 10.5 "/>
<path style=" stroke:none;fill-rule:nonzero;fill:url(#radial0);" d="M 54 10.5 L 56.359375 12.859375 L 54 19.574219 Z M 54 10.5 "/>
<path style=" stroke:none;fill-rule:nonzero;fill:rgb(96.078432%,76.078433%,6.666667%);fill-opacity:0.488;" d="M 54 10.5 L 56.359375 8.140625 L 54 1.425781 Z M 54 10.5 "/>
<use xlink:href="#surface12" mask="url(#mask0)"/>
<path style=" stroke:none;fill-rule:nonzero;fill:url(#linear1);" d="M 53.5 26.5 L 48.691406 28.191406 L 47 33 L 45.308594 28.191406 L 40.5 26.5 L 45.308594 24.808594 L 47 20 L 48.691406 24.808594 Z M 53.5 26.5 "/>
<path style=" stroke:none;fill-rule:nonzero;fill:rgb(96.078432%,76.078433%,6.666667%);fill-opacity:1;" d="M 47 26.5 L 48.691406 28.191406 L 53.5 26.5 Z M 47 26.5 L 45.308594 28.191406 L 40.5 26.5 Z M 47 26.5 "/>
<path style=" stroke:none;fill-rule:nonzero;fill:url(#radial2);" d="M 47 26.5 L 48.691406 28.191406 L 47 33 Z M 47 26.5 "/>
<path style=" stroke:none;fill-rule:nonzero;fill:rgb(96.078432%,76.078433%,6.666667%);fill-opacity:0.488;" d="M 47 26.5 L 48.691406 24.808594 L 47 20 Z M 47 26.5 "/>
<use xlink:href="#surface24" mask="url(#mask1)"/>
<path style=" stroke:none;fill-rule:nonzero;fill:rgb(96.470588%,96.078432%,95.686275%);fill-opacity:1;" d="M 31.925781 2.324219 C 15.535156 2.324219 2.246094 15.609375 2.246094 32 C 2.246094 48.390625 15.535156 61.675781 31.925781 61.675781 C 43.976562 61.675781 54.835938 54.386719 59.394531 43.230469 C 58.054688 43.484375 56.695312 43.609375 55.328125 43.609375 C 43.09375 43.609375 33.175781 33.6875 33.175781 21.453125 C 33.175781 14.625 36.324219 8.179688 41.707031 3.980469 C 38.5625 2.882812 35.257812 2.324219 31.925781 2.324219 Z M 31.925781 2.324219 "/>
<path style=" stroke:none;fill-rule:nonzero;fill:url(#linear2);" d="M 40.328125 3.535156 C 35.5625 7.921875 32.957031 14.167969 33.191406 20.636719 C 33.433594 14.101562 36.550781 8.003906 41.710938 3.980469 C 41.253906 3.820312 40.792969 3.675781 40.328125 3.535156 Z M 2.261719 31.195312 C 2.253906 31.464844 2.246094 31.730469 2.246094 32 C 2.246094 48.390625 15.535156 61.675781 31.925781 61.675781 C 43.976562 61.675781 54.835938 54.386719 59.398438 43.234375 C 59.136719 43.28125 58.875 43.324219 58.613281 43.363281 C 53.648438 53.578125 43.285156 60.0625 31.925781 60.0625 C 15.851562 60.0625 2.699219 47.261719 2.261719 31.195312 Z M 2.261719 31.195312 "/>
<path style=" stroke:none;fill-rule:nonzero;fill:rgb(100%,100%,100%);fill-opacity:0.599;" d="M 31.925781 2.324219 C 15.535156 2.324219 2.246094 15.609375 2.246094 32 C 2.246094 32.167969 2.257812 32.332031 2.261719 32.5 C 2.527344 16.339844 15.703125 3.324219 31.925781 3.324219 C 34.949219 3.324219 37.957031 3.785156 40.839844 4.695312 C 41.121094 4.449219 41.410156 4.210938 41.707031 3.980469 C 38.5625 2.882812 35.257812 2.324219 31.925781 2.324219 Z M 33.1875 21.820312 C 33.179688 22.03125 33.175781 22.242188 33.175781 22.453125 C 33.175781 34.6875 43.09375 44.609375 55.328125 44.609375 C 56.535156 44.609375 57.738281 44.503906 58.925781 44.304688 C 59.089844 43.953125 59.246094 43.59375 59.394531 43.230469 C 58.054688 43.484375 56.695312 43.609375 55.328125 43.609375 C 43.21875 43.609375 33.382812 33.882812 33.183594 21.820312 Z M 33.1875 21.820312 "/>
</g>
</svg>
